icons/midnadark/actions/24/tab-new-background.svg

<?xml version="1.0" encoding="UTF-8" standalone="no"?>
<!-- Created with Inkscape (http://www.inkscape.org/) -->

<svg
   xmlns:sketch="http://www.bohemiancoding.com/sketch/ns"
   xmlns:dc="http://purl.org/dc/elements/1.1/"
   xmlns:cc="http://creativecommons.org/ns#"
   xmlns:rdf="http://www.w3.org/1999/02/22-rdf-syntax-ns#"
   xmlns:svg="http://www.w3.org/2000/svg"
   xmlns="http://www.w3.org/2000/svg"
   xmlns:sodipodi="http://sodipodi.sourceforge.net/DTD/sodipodi-0.dtd"
   xmlns:inkscape="http://www.inkscape.org/namespaces/inkscape"
   width="22"
   height="22"
   id="svg3869"
   version="1.1"
   inkscape:version="0.91 r13725"
   sodipodi:docname="tab-new-background.svg">
  <defs
     id="defs3871">
    <linearGradient
       id="linearGradient4290-48">
      <stop
         id="stop4292-0"
         offset="0"
         style="stop-color:#a5a5a5;stop-opacity:1;" />
      <stop
         id="stop4294-0"
         offset="1"
         style="stop-color:#f5f2f5;stop-opacity:1;" />
    </linearGradient>
    <inkscape:perspective
       id="perspective4146-9"
       inkscape:persp3d-origin="12 : 8 : 1"
       inkscape:vp_z="24 : 12 : 1"
       inkscape:vp_y="0 : 1000 : 0"
       inkscape:vp_x="0 : 12 : 1"
       sodipodi:type="inkscape:persp3d" />
    <inkscape:perspective
       id="perspective4146"
       inkscape:persp3d-origin="12 : 8 : 1"
       inkscape:vp_z="24 : 12 : 1"
       inkscape:vp_y="0 : 1000 : 0"
       inkscape:vp_x="0 : 12 : 1"
       sodipodi:type="inkscape:persp3d" />
    <inkscape:perspective
       sodipodi:type="inkscape:persp3d"
       inkscape:vp_x="0 : 12 : 1"
       inkscape:vp_y="0 : 1000 : 0"
       inkscape:vp_z="24 : 12 : 1"
       inkscape:persp3d-origin="12 : 8 : 1"
       id="perspective4146-9-1" />
    <inkscape:perspective
       sodipodi:type="inkscape:persp3d"
       inkscape:vp_x="0 : 12 : 1"
       inkscape:vp_y="0 : 1000 : 0"
       inkscape:vp_z="24 : 12 : 1"
       inkscape:persp3d-origin="12 : 8 : 1"
       id="perspective4146-96" />
    <clipPath
       clipPathUnits="userSpaceOnUse"
       id="clipPath16">
      <path
         d="m 0,706.465 1490.926,0 L 1490.926,0 0,0 0,706.465 Z"
         id="path18"
         inkscape:connector-curvature="0" />
    </clipPath>
    <clipPath
       clipPathUnits="userSpaceOnUse"
       id="clipPath24">
      <path
         d="m 22.1953,686.117 1447.7347,0 0,-667.1902 -1447.7347,0 0,667.1902 z"
         id="path26"
         inkscape:connector-curvature="0" />
    </clipPath>
    <inkscape:perspective
       sodipodi:type="inkscape:persp3d"
       inkscape:vp_x="0 : 12 : 1"
       inkscape:vp_y="0 : 1000 : 0"
       inkscape:vp_z="24 : 12 : 1"
       inkscape:persp3d-origin="12 : 8 : 1"
       id="perspective4146-9-3" />
    <inkscape:perspective
       sodipodi:type="inkscape:persp3d"
       inkscape:vp_x="0 : 12 : 1"
       inkscape:vp_y="0 : 1000 : 0"
       inkscape:vp_z="24 : 12 : 1"
       inkscape:persp3d-origin="12 : 8 : 1"
       id="perspective4146-6" />
    <inkscape:perspective
       id="perspective4146-9-1-7"
       inkscape:persp3d-origin="12 : 8 : 1"
       inkscape:vp_z="24 : 12 : 1"
       inkscape:vp_y="0 : 1000 : 0"
       inkscape:vp_x="0 : 12 : 1"
       sodipodi:type="inkscape:persp3d" />
    <inkscape:perspective
       id="perspective4146-96-7"
       inkscape:persp3d-origin="12 : 8 : 1"
       inkscape:vp_z="24 : 12 : 1"
       inkscape:vp_y="0 : 1000 : 0"
       inkscape:vp_x="0 : 12 : 1"
       sodipodi:type="inkscape:persp3d" />
    <clipPath
       id="clipPath16-1"
       clipPathUnits="userSpaceOnUse">
      <path
         inkscape:connector-curvature="0"
         id="path18-7"
         d="m 0,706.465 1490.926,0 L 1490.926,0 0,0 0,706.465 Z" />
    </clipPath>
    <clipPath
       id="clipPath24-5"
       clipPathUnits="userSpaceOnUse">
      <path
         inkscape:connector-curvature="0"
         id="path26-0"
         d="m 22.1953,686.117 1447.7347,0 0,-667.1902 -1447.7347,0 0,667.1902 z" />
    </clipPath>
    <inkscape:perspective
       id="perspective4146-9-8"
       inkscape:persp3d-origin="12 : 8 : 1"
       inkscape:vp_z="24 : 12 : 1"
       inkscape:vp_y="0 : 1000 : 0"
       inkscape:vp_x="0 : 12 : 1"
       sodipodi:type="inkscape:persp3d" />
    <inkscape:perspective
       id="perspective4146-8"
       inkscape:persp3d-origin="12 : 8 : 1"
       inkscape:vp_z="24 : 12 : 1"
       inkscape:vp_y="0 : 1000 : 0"
       inkscape:vp_x="0 : 12 : 1"
       sodipodi:type="inkscape:persp3d" />
    <inkscape:perspective
       sodipodi:type="inkscape:persp3d"
       inkscape:vp_x="0 : 12 : 1"
       inkscape:vp_y="0 : 1000 : 0"
       inkscape:vp_z="24 : 12 : 1"
       inkscape:persp3d-origin="12 : 8 : 1"
       id="perspective4146-9-1-1" />
    <inkscape:perspective
       sodipodi:type="inkscape:persp3d"
       inkscape:vp_x="0 : 12 : 1"
       inkscape:vp_y="0 : 1000 : 0"
       inkscape:vp_z="24 : 12 : 1"
       inkscape:persp3d-origin="12 : 8 : 1"
       id="perspective4146-96-8" />
    <clipPath
       clipPathUnits="userSpaceOnUse"
       id="clipPath16-8">
      <path
         d="m 0,706.465 1490.926,0 L 1490.926,0 0,0 0,706.465 Z"
         id="path18-5"
         inkscape:connector-curvature="0" />
    </clipPath>
    <clipPath
       clipPathUnits="userSpaceOnUse"
       id="clipPath24-0">
      <path
         d="m 22.1953,686.117 1447.7347,0 0,-667.1902 -1447.7347,0 0,667.1902 z"
         id="path26-4"
         inkscape:connector-curvature="0" />
    </clipPath>
  </defs>
  <sodipodi:namedview
     id="base"
     pagecolor="#ffffff"
     bordercolor="#666666"
     borderopacity="1.0"
     inkscape:pageopacity="0.0"
     inkscape:pageshadow="2"
     inkscape:zoom="11.313708"
     inkscape:cx="-20.87705"
     inkscape:cy="8.787005"
     inkscape:document-units="px"
     inkscape:current-layer="layer1"
     showgrid="true"
     fit-margin-top="0"
     fit-margin-left="0"
     fit-margin-right="0"
     fit-margin-bottom="0"
     inkscape:window-width="1366"
     inkscape:window-height="633"
     inkscape:window-x="0"
     inkscape:window-y="33"
     inkscape:window-maximized="1"
     inkscape:showpageshadow="false"
     inkscape:snap-bbox="true"
     inkscape:object-nodes="true">
    <inkscape:grid
       type="xygrid"
       id="grid4132" />
    <sodipodi:guide
       position="4,18"
       orientation="18,0"
       id="guide4138" />
    <sodipodi:guide
       position="5,3"
       orientation="0,18"
       id="guide4140" />
    <sodipodi:guide
       position="20,2.0000174"
       orientation="-18,0"
       id="guide4142" />
    <sodipodi:guide
       position="2,21"
       orientation="0,-18"
       id="guide4144" />
    <sodipodi:guide
       position="3,19.000017"
       orientation="16,0"
       id="guide4146" />
    <sodipodi:guide
       position="2,4"
       orientation="0,16"
       id="guide4148" />
    <sodipodi:guide
       position="21,20"
       orientation="-16,0"
       id="guide4150" />
    <sodipodi:guide
       position="2,20"
       orientation="0,-16"
       id="guide4152" />
  </sodipodi:namedview>
  <metadata
     id="metadata3874">
    <rdf:RDF>
      <cc:Work
         rdf:about="">
        <dc:format>image/svg+xml</dc:format>
        <dc:type
           rdf:resource="http://purl.org/dc/dcmitype/StillImage" />
        <dc:title />
      </cc:Work>
    </rdf:RDF>
  </metadata>
  <g
     inkscape:label="Capa 1"
     inkscape:groupmode="layer"
     id="layer1"
     transform="translate(-326,-534.3622)">
    <g
       id="layer1-1"
       inkscape:label="Capa 1"
       style="fill:#ffffff;fill-opacity:1">
      <g
         inkscape:label="Capa 1"
         id="layer1-5"
         style="fill:#ffffff;fill-opacity:1">
        <g
           id="g4157-0"
           transform="matrix(0.90909089,0,0,0.90909089,29.727279,50.487483)"
           style="fill:#ffffff;fill-opacity:1">
          <g
             transform="matrix(1.0072497,0,0,1.0072497,-2.7063986,-3.7952074)"
             id="g4156"
             style="fill:#ffffff;fill-opacity:1">
            <g
               transform="matrix(0.66666667,0,0,0.66666667,327.33333,533.69553)"
               id="g3-4"
               style="fill:#ffffff;fill-opacity:1">
              <path
                 style="fill:#ffffff;fill-opacity:1"
                 d="M 3.7265625 3.8125 L 1 7.9003906 L 1 18.462891 L 20.535156 18.462891 L 20.535156 7.4746094 L 17.808594 3.8125 L 12.292969 3.8125 L 10.689453 5.9511719 L 9.2617188 3.8125 L 3.7265625 3.8125 z M 16.261719 12.419922 C 16.298043 12.429782 16.331233 12.452197 16.361328 12.484375 L 16.78125 12.916016 L 17.201172 12.484375 C 17.261324 12.422121 17.334776 12.400975 17.419922 12.423828 C 17.505029 12.444579 17.557374 12.498877 17.578125 12.583984 L 17.726562 13.167969 L 18.306641 13.003906 C 18.391786 12.978989 18.463285 12.998144 18.523438 13.0625 C 18.58787 13.12269 18.608863 13.196181 18.583984 13.28125 L 18.417969 13.859375 L 19.003906 14.009766 C 19.086988 14.030517 19.141137 14.082861 19.166016 14.167969 C 19.186767 14.25514 19.165808 14.328592 19.103516 14.386719 L 18.673828 14.806641 L 19.103516 15.226562 C 19.165846 15.284689 19.186805 15.358103 19.166016 15.445312 C 19.141137 15.53042 19.087026 15.582764 19.003906 15.603516 L 18.417969 15.751953 L 18.583984 16.332031 C 18.608863 16.4171 18.587832 16.490553 18.523438 16.550781 C 18.463285 16.615137 18.391786 16.634254 18.306641 16.609375 L 17.726562 16.443359 L 17.578125 17.029297 C 17.557374 17.112302 17.505029 17.166489 17.419922 17.191406 C 17.394967 17.195495 17.373935 17.197266 17.359375 17.197266 C 17.295057 17.197266 17.242675 17.174498 17.201172 17.128906 L 16.78125 16.699219 L 16.361328 17.128906 C 16.303201 17.19116 16.229749 17.212158 16.142578 17.191406 C 16.057471 17.168591 16.005126 17.114404 15.984375 17.029297 L 15.833984 16.443359 L 15.255859 16.609375 C 15.170752 16.634254 15.0973 16.615137 15.037109 16.550781 C 14.972753 16.490553 14.953599 16.417139 14.978516 16.332031 L 15.142578 15.751953 L 14.558594 15.603516 C 14.475588 15.582764 14.421363 15.53042 14.396484 15.445312 C 14.375733 15.358141 14.39673 15.284689 14.458984 15.226562 L 14.888672 14.806641 L 14.458984 14.386719 C 14.39673 14.328592 14.375695 14.25514 14.396484 14.167969 C 14.421363 14.082861 14.475588 14.030517 14.558594 14.009766 L 15.142578 13.859375 L 14.978516 13.28125 C 14.953599 13.196143 14.972753 13.12269 15.037109 13.0625 C 15.0973 12.998144 15.170752 12.978989 15.255859 13.003906 L 15.833984 13.167969 L 15.984375 12.583984 C 16.005126 12.498877 16.057471 12.444579 16.142578 12.423828 C 16.185132 12.41137 16.225394 12.410062 16.261719 12.419922 z "
                 transform="matrix(1.6381241,0,0,1.6381241,-1.6381239,-2.24461)"
                 id="path5-23" />
            </g>
          </g>
        </g>
      </g>
    </g>
    <g
       id="g4157"
       transform="matrix(1.03125,0,0,1.03125,-12.062794,-16.011168)"
       style="fill:#ffffff;fill-opacity:1">
      <g
         style="fill:#ffffff;fill-opacity:1"
         transform="matrix(0.03705807,0,0,0.03705807,341.75609,545.71854)"
         sketch:type="MSLayerGroup"
         id="certificate6" />
    </g>
  </g>
</svg>

<svg xmlns="http://www.w3.org/2000/svg" viewBox="0 0 22 22"><defs><clipPath><path d="m0 706.47h1490.93v-706.47h-1490.93v706.47"/></clipPath><clipPath><path d="m22.2 686.12h1447.73v-667.19h-1447.73v667.19"/></clipPath></defs><path d="m3.727 3.813l-2.727 4.088v10.563h19.535v-10.988l-2.727-3.662h-5.516l-1.604 2.139-1.428-2.139h-5.535m12.535 8.607c.036.001.07.032.1.064l.42.432.42-.432c.06-.062.134-.083.219-.061.085.021.137.075.158.16l.148.584.58-.164c.085-.025.157-.006.217.059.064.06.085.134.061.219l-.166.578.586.15c.083.021.137.073.162.158.021.087 0 .161-.063.219l-.43.42.43.42c.062.058.083.132.063.219-.025.085-.079.137-.162.158l-.586.148.166.58c.025.085.004.159-.061.219-.06.064-.132.083-.217.059l-.58-.166-.148.586c-.021.083-.073.137-.158.162-.025.004-.046.006-.061.006-.064 0-.117-.023-.158-.068l-.42-.43-.42.43c-.058.062-.132.083-.219.063-.085-.023-.137-.077-.158-.162l-.15-.586-.578.166c-.085.025-.159.006-.219-.059-.064-.06-.084-.134-.059-.219l.164-.58-.584-.148c-.083-.021-.137-.073-.162-.158-.021-.087 0-.161.063-.219l.43-.42-.43-.42c-.062-.058-.083-.132-.063-.219.025-.085.079-.137.162-.158l.584-.15-.164-.578c-.025-.085-.006-.159.059-.219.06-.064.134-.084.219-.059l.578.164.15-.584c.021-.085.073-.139.158-.16.043-.012.083-.014.119-.004" transform="translate(0-.002)" fill="#fff"/></svg>
